svgs/baidu_netdisk.svg

<svg width="192" height="192" viewBox="0 0 192 192" xmlns="http://www.w3.org/2000/svg"><path d="M55.1 81.9c-.4-2.3-.6-4.6-.6-6.9 0-22.9 18.6-41.5 41.5-41.5s41.5 18.6 41.5 41.5c0 2.4-.2 4.6-.6 6.9 21 .1 38.1 17.2 38.1 38.3s-17.2 38.3-38.3 38.3c-10.7 0-20.3-4.3-27.3-11.5-3.7-3.8-3.7-9.7.1-13.3s9.7-3.8 13.4 0c.1.1.2.2.3.4 3.5 3.4 8.2 5.4 13.4 5.4 10.7 0 19.4-8.7 19.4-19.4s-8.7-19.4-19.4-19.4c-4.8 0-9.4 1.8-12.7 4.8l-.3.3c-.4.3-.7.7-1.1 1.1l-.7.7-39.2 39.1c-6.9 7.1-16.6 11.5-27.4 11.5-21 .1-38.2-17.1-38.2-38.2.1-20.9 17.1-38 38.1-38.1zm.3 57.5c10.7 0 19.4-8.7 19.4-19.4s-8.7-19.4-19.4-19.4S36 109.3 36 120c.2 10.8 8.7 19.4 19.4 19.4zm40.7-42c12.4 0 22.5-10.1 22.5-22.5s-10.1-22.5-22.5-22.5-22.6 10-22.6 22.5 10.2 22.5 22.6 22.5z"/></svg>

<svg width="192" height="192" viewBox="0 0 192 192" xmlns="http://www.w3.org/2000/svg">
    <path d="M55.1,81.9c-0.4-2.3-0.6-4.6-0.6-6.9c0-22.9,18.6-41.5,41.5-41.5s41.5,18.6,41.5,41.5c0,2.4-0.2,4.6-0.6,6.9
	c21,0.1,38.1,17.2,38.1,38.3s-17.2,38.3-38.3,38.3c-10.7,0-20.3-4.3-27.3-11.5c-3.7-3.8-3.7-9.7,0.1-13.3s9.7-3.8,13.4,0
	c0.1,0.1,0.2,0.2,0.3,0.4c3.5,3.4,8.2,5.4,13.4,5.4c10.7,0,19.4-8.7,19.4-19.4s-8.7-19.4-19.4-19.4c-4.8,0-9.4,1.8-12.7,4.8
	l-0.3,0.3c-0.4,0.3-0.7,0.7-1.1,1.1l-0.7,0.7l-39.2,39.1c-6.9,7.1-16.6,11.5-27.4,11.5C34.2,158.3,17,141.1,17,120
	C17.1,99.1,34.1,82,55.1,81.9z M55.4,139.4c10.7,0,19.4-8.7,19.4-19.4s-8.7-19.4-19.4-19.4s-19.4,8.7-19.4,19.4
	C36.2,130.8,44.7,139.4,55.4,139.4z M96.1,97.4c12.4,0,22.5-10.1,22.5-22.5s-10.1-22.5-22.5-22.5S73.5,62.4,73.5,74.9
	S83.7,97.4,96.1,97.4z"
        fill="#000000"/>
</svg>
